X:01
T:Concertina Reel, The
R:reel
G:reel
C:ITM, Reel in D
M:4/4
L:1/8
Q:150
K:D
|:"D"A2 (FA) (BA)(FG)|A2(FA) (BA)(FA)|"G"(BA)(cA) (BA)(cA)|(BA)(cA) (BA)(FG)|
"D"A2 (FA) (BA)(FG)|A2 (FA) (BA)(FE)|(FA)(Bc) "G"(ded)(B|1"D"A)(F"A"EF) "D"D2 (FG):|2"D"A(F"A"EF) "D"D2z2||
|:"D"A(d{e}d{c}d) A(d{e}d{c}d)|A(d{e}d{c}d) (BA)(FA)|"G"(BA)(cA) (BA)(cA)|(BA)(cA) (BA)(FG)|
|"D"A(d{e}d{c}d) A(d{e}d{c}d)|A(d{e}d{c}d) "G"(BA)(FE)|(FA)(Bc) "G"(ded)(B|1"D"A)(F"A"EF) "D"D2 z2:|2"D"A(F"A"EF)"D"D2 (FG)||

